images/icons/SVG/envelope.svg

<!-- Generated by IcoMoon.io -->
<svg version="1.1" xmlns="http://www.w3.org/2000/svg" width="43" height="32" viewBox="0 0 43 32">
<title>envelope</title>
<path d="M38.667 0h-34.667c-2.206 0-4 1.794-4 4v24c0 2.206 1.794 4 4 4h34.667c2.206 0 4-1.794 4-4v-24c0-2.206-1.794-4-4-4zM38.667 2.667c0.181 0 0.353 0.038 0.511 0.103l-17.844 15.466-17.844-15.466c0.151-0.065 0.327-0.103 0.511-0.103h34.667zM38.667 29.333h-34.667c-0.736-0.001-1.332-0.597-1.333-1.333v-22.413l17.793 15.421c0.233 0.202 0.539 0.326 0.874 0.326s0.641-0.123 0.876-0.327l-0.002 0.001 17.793-15.421v22.413c0 0.736-0.598 1.333-1.333 1.333z"></path>
</svg>

<svg xmlns="http://www.w3.org/2000/svg" width="43" height="32" viewBox="0 0 43 32">
  <path fill="#2196f3" d="M38.667 0H4C1.794 0 0 1.794 0 4v24c0 2.206 1.794 4 4 4h34.667c2.206 0 4-1.794 4-4V4c0-2.206-1.794-4-4-4zm0 2.667c.181 0 .353.038.511.103L21.334 18.236 3.49 2.77a1.32 1.32 0 0 1 .511-.103h34.667zm0 26.666H4A1.334 1.334 0 0 1 2.667 28V5.587L20.46 21.008a1.335 1.335 0 0 0 1.748 0L40.001 5.587V28c0 .736-.598 1.333-1.333 1.333z"/>
</svg>
